newicons/talaadthai_online.svg

<?xml version="1.0" encoding="UTF-8" standalone="no"?>
<svg
   viewBox="0 0 48 48"
   version="1.1"
   id="svg1"
   sodipodi:docname="talaadthai_online.svg"
   inkscape:version="1.2.2 (b0a8486541, 2022-12-01)"
   xml:space="preserve"
   xmlns:inkscape="http://www.inkscape.org/namespaces/inkscape"
   xmlns:sodipodi="http://sodipodi.sourceforge.net/DTD/sodipodi-0.dtd"
   xmlns="http://www.w3.org/2000/svg"
   xmlns:svg="http://www.w3.org/2000/svg"><sodipodi:namedview
     id="namedview1"
     pagecolor="#505050"
     bordercolor="#eeeeee"
     borderopacity="1"
     inkscape:showpageshadow="0"
     inkscape:pageopacity="0"
     inkscape:pagecheckerboard="0"
     inkscape:deskcolor="#505050"
     inkscape:zoom="12.59534"
     inkscape:cx="11.670984"
     inkscape:cy="19.848611"
     inkscape:window-width="1912"
     inkscape:window-height="1054"
     inkscape:window-x="0"
     inkscape:window-y="0"
     inkscape:window-maximized="1"
     inkscape:current-layer="svg1"
     showgrid="false" /><defs
     id="defs1"><style
       id="style1">.a { fill:none;stroke:#fff;stroke-linecap:round;stroke-linejoin:round; }
</style></defs><g
     id="g12611"><g
       id="g12589"><path
         style="fill:none;stroke:#ffffff;stroke-width:1;stroke-linecap:round;stroke-linejoin:round;stroke-opacity:1;stop-color:#000000"
         d="m 8.0823856,26.788966 2.6593864,12.571409 c 0.326123,1.541648 2.13901,2.923615 3.714798,2.923615 h 19.08686 c 1.575789,0 3.388676,-1.381967 3.7148,-2.923615 l 2.659383,-12.571409"
         id="path12529" /><path
         style="fill:none;stroke:#ffffff;stroke-width:1;stroke-linecap:round;stroke-linejoin:round;stroke-opacity:1;stop-color:#000000"
         d="M 7.8999952,22.456129 H 40.100005 c 0.76435,0 1.379694,0.615336 1.379694,1.379674 v 1.437529 c 0,0.76434 -0.615344,1.379674 -1.379694,1.379674 H 7.8999952 c -0.7643507,0 -1.3796943,-0.615334 -1.3796943,-1.379674 v -1.437529 c 0,-0.764338 0.6153436,-1.379674 1.3796943,-1.379674 z"
         id="path12527" /><g
         id="g12576"><path
           style="fill:none;stroke:#ffffff;stroke-width:1;stroke-linecap:round;stroke-linejoin:round;stroke-opacity:1;stop-color:#000000"
           d="M 11.140521,26.765907 26.548698,42.17386"
           id="path12525" /><path
           style="fill:none;stroke:#ffffff;stroke-width:1;stroke-linecap:round;stroke-linejoin:round;stroke-opacity:1;stop-color:#000000"
           d="m 30.827283,26.765907 7.345133,7.345026"
           id="path12523" /><path
           style="fill:none;stroke:#ffffff;stroke-width:1;stroke-linecap:round;stroke-linejoin:round;stroke-opacity:1;stop-color:#000000"
           d="M 20.983902,26.765907 35.596555,41.378348"
           id="path12521" /><path
           style="fill:none;stroke:#ffffff;stroke-width:1;stroke-linecap:round;stroke-linejoin:round;stroke-opacity:1;stop-color:#000000"
           d="m 10.147088,35.615725 6.55823,6.558135"
           id="path12519" /><path
           style="fill:none;stroke:#ffffff;stroke-width:1;stroke-linecap:round;stroke-linejoin:round;stroke-opacity:1;stop-color:#000000"
           d="M 37.008034,26.765907 21.599857,42.17386"
           id="path12517" /><path
           style="fill:none;stroke:#ffffff;stroke-width:1;stroke-linecap:round;stroke-linejoin:round;stroke-opacity:1;stop-color:#000000"
           d="M 17.321273,26.765907 9.854789,34.232281"
           id="path12515" /><path
           style="fill:none;stroke:#ffffff;stroke-width:1;stroke-linecap:round;stroke-linejoin:round;stroke-opacity:1;stop-color:#000000"
           d="M 27.164653,26.765907 12.493793,41.436554"
           id="path12513" /><path
           style="fill:none;stroke:#ffffff;stroke-width:1;stroke-linecap:round;stroke-linejoin:round;stroke-opacity:1;stop-color:#000000"
           d="m 37.811723,35.80544 -6.368512,6.36842"
           id="path12511" /></g></g><g
       id="g12566"><g
         id="g12552"><path
           style="fill:none;stroke:#ffffff;stroke-width:1;stroke-linecap:round;stroke-linejoin:round;stroke-opacity:1;stop-color:#000000"
           d="m 38.778524,22.369529 c 0.898434,-2.06895 0.956632,-4.29224 0.07043,-6.103435 -0.028,-0.05722 -0.0585,-0.113921 -0.08839,-0.170303 A 1.8059469,1.8059207 0 0 0 39.5,14.642821 1.8059469,1.8059207 0 0 0 37.693462,12.836309 1.8059469,1.8059207 0 0 0 36.22107,13.605908 c -2.681092,-1.367925 -6.423981,-0.812648 -9.308625,1.636209 -1.716538,1.457217 -2.821362,3.323057 -3.241904,5.199399"
           id="path12507" /><path
           style="fill:none;stroke:#ffffff;stroke-width:1;stroke-linecap:round;stroke-linejoin:round;stroke-opacity:1;stop-color:#000000"
           d="m 29.880668,16.073766 c 1.251476,-0.992262 3.506836,-1.003739 4.383554,0.237715"
           id="path12505" /></g><g
         id="g12557"><path
           style="fill:none;stroke:#ffffff;stroke-width:1;stroke-linecap:round;stroke-linejoin:round;stroke-opacity:1;stop-color:#000000"
           d="m 9.6286041,22.370806 a 7.0586371,7.0585346 0 0 1 -0.00508,-0.268833 7.0586371,7.0585346 0 0 1 7.0586369,-7.058535 7.0586371,7.0585346 0 0 1 7.058636,7.058535 v 0 a 7.0586371,7.0585346 0 0 1 -0.0051,0.268834"
           id="path12509" /><path
           style="fill:none;stroke:#ffffff;stroke-width:1;stroke-linecap:round;stroke-linejoin:round;stroke-opacity:1;stop-color:#000000"
           d="M 18.305011,12.913396 C 16.947545,13.820411 16.94117,14.840938 16.832229,16.684497 16.332834,13.163915 14.47817,10.592345 11.347675,8.8126199"
           id="path12503" /><path
           style="fill:none;stroke:#ffffff;stroke-width:1;stroke-linecap:round;stroke-linejoin:round;stroke-opacity:1;stop-color:#000000"
           d="M 15.739555,13.054746 C 16.209082,8.3831226 13.972455,5.2245012 8.0852532,5.7781202 7.3778582,11.46872 11.763489,14.833291 15.739555,13.054746 Z"
           id="path11688" /></g></g></g></svg>

<?xml version="1.0" encoding="UTF-8"?><svg id="a" xmlns="http://www.w3.org/2000/svg" viewBox="0 0 48 48"><g id="e"><g id="f"><path id="g" d="M8.0824,26.7893l2.6594,12.5714c.3261,1.5416,2.139,2.9236,3.7148,2.9236h19.0869c1.5758,0,3.3887-1.382,3.7148-2.9236l2.6594-12.5714" style="fill:none; stroke:#fff; stroke-linecap:round; stroke-linejoin:round;"/><path id="h" d="M7.9,22.4565h32.2c.7644,0,1.3797.6153,1.3797,1.3797v1.4375c0,.7643-.6153,1.3797-1.3797,1.3797H7.9c-.7644,0-1.3797-.6153-1.3797-1.3797v-1.4375c0-.7643.6153-1.3797,1.3797-1.3797Z" style="fill:none; stroke:#fff; stroke-linecap:round; stroke-linejoin:round;"/><g id="i"><path id="j" d="M11.1405,26.7663l15.4082,15.408" style="fill:none; stroke:#fff; stroke-linecap:round; stroke-linejoin:round;"/><path id="k" d="M30.8273,26.7663l7.3451,7.345" style="fill:none; stroke:#fff; stroke-linecap:round; stroke-linejoin:round;"/><path id="l" d="M20.9839,26.7663l14.6127,14.6124" style="fill:none; stroke:#fff; stroke-linecap:round; stroke-linejoin:round;"/><path id="m" d="M10.1471,35.6161l6.5582,6.5581" style="fill:none; stroke:#fff; stroke-linecap:round; stroke-linejoin:round;"/><path id="n" d="M37.008,26.7663l-15.4082,15.408" style="fill:none; stroke:#fff; stroke-linecap:round; stroke-linejoin:round;"/><path id="o" d="M17.3213,26.7663l-7.4665,7.4664" style="fill:none; stroke:#fff; stroke-linecap:round; stroke-linejoin:round;"/><path id="p" d="M27.1647,26.7663l-14.6709,14.6706" style="fill:none; stroke:#fff; stroke-linecap:round; stroke-linejoin:round;"/><path id="q" d="M37.8117,35.8058l-6.3685,6.3684" style="fill:none; stroke:#fff; stroke-linecap:round; stroke-linejoin:round;"/></g></g><g id="r"><g id="s"><path id="t" d="M38.7785,22.3699c.8984-2.069.9566-4.2922.0704-6.1034-.028-.0572-.0585-.1139-.0884-.1703.4635-.3392.738-.8786.7394-1.453.0003-.9974-.808-1.8062-1.8054-1.8065h-.0012c-.5867.0022-1.1357.2891-1.4724.7696-2.6811-1.3679-6.424-.8126-9.3086,1.6362-1.7165,1.4572-2.8214,3.3231-3.2419,5.1994" style="fill:none; stroke:#fff; stroke-linecap:round; stroke-linejoin:round;"/><path id="u" d="M29.8807,16.0741c1.2515-.9923,3.5068-1.0037,4.3836.2377" style="fill:none; stroke:#fff; stroke-linecap:round; stroke-linejoin:round;"/></g><g id="v"><path id="w" d="M9.6286,22.3712c-.0034-.0896-.0051-.1792-.0051-.2688,0-3.8983,3.1603-7.0585,7.0586-7.0585,3.8984,0,7.0586,3.1602,7.0586,7.0585h0c0,.0896-.0017.1793-.0051.2688" style="fill:none; stroke:#fff; stroke-linecap:round; stroke-linejoin:round;"/><path id="x" d="M18.305,12.9138c-1.3575.907-1.3638,1.9275-1.4728,3.7711-.4994-3.5206-2.3541-6.0922-5.4846-7.8719" style="fill:none; stroke:#fff; stroke-linecap:round; stroke-linejoin:round;"/><path id="y" d="M15.7396,13.0551c.4695-4.6716-1.7671-7.8302-7.6543-7.2766-.7074,5.6906,3.6782,9.0552,7.6543,7.2766Z" style="fill:none; stroke:#fff; stroke-linecap:round; stroke-linejoin:round;"/></g></g></g></svg>
